src/shared/media/imgs/delete.svg

<!DOCTYPE svg PUBLIC "-//W3C//DTD SVG 1.1//EN" "http://www.w3.org/Graphics/SVG/1.1/DTD/svg11.dtd">
<!-- Uploaded to: SVG Repo, www.svgrepo.com, Transformed by: SVG Repo Mixer Tools -->
<svg width="800px" height="800px" viewBox="0 0 24 24" fill="none" xmlns="http://www.w3.org/2000/svg">
<g id="SVGRepo_bgCarrier" stroke-width="0"/>
<g id="SVGRepo_tracerCarrier" stroke-linecap="round" stroke-linejoin="round"/>
<g id="SVGRepo_iconCarrier"> <path d="M10 12V17" stroke="#FF5A65" stroke-width="2" stroke-linecap="round" stroke-linejoin="round"/> <path d="M14 12V17" stroke="#FF5A65" stroke-width="2" stroke-linecap="round" stroke-linejoin="round"/> <path d="M4 7H20" stroke="#FF5A65" stroke-width="2" stroke-linecap="round" stroke-linejoin="round"/> <path d="M6 10V18C6 19.6569 7.34315 21 9 21H15C16.6569 21 18 19.6569 18 18V10" stroke="#FF5A65" stroke-width="2" stroke-linecap="round" stroke-linejoin="round"/> <path d="M9 5C9 3.89543 9.89543 3 11 3H13C14.1046 3 15 3.89543 15 5V7H9V5Z" stroke="#FF5A65" stroke-width="2" stroke-linecap="round" stroke-linejoin="round"/> </g>
</svg>

<svg xmlns="http://www.w3.org/2000/svg" width="800" height="800" viewBox="0 0 24 24" fill="none" stroke="#ff5a65" stroke-width="2" xmlns:v="https://vecta.io/nano"><path d="M10 12v5m4-5v5M4 7h16M6 10v8a3 3 0 0 0 3 3h6a3 3 0 0 0 3-3v-8" stroke-linecap="round" stroke-linejoin="round"/><path d="M9 5a2 2 0 0 1 2-2h2a2 2 0 0 1 2 2v2H9V5z" stroke-linejoin="round"/></svg>
